assets/Roasted sweet potato/Flat/roasted_sweet_potato_flat.svg

<svg width="32" height="32" viewBox="0 0 32 32" fill="none" xmlns="http://www.w3.org/2000/svg">
<path d="M24.271 10.7247C22.3232 7.48388 18.1143 4.6134 16.2533 3.58325C11.4818 6.84073 2.15723 13.8485 3.03037 15.8197C4.12178 18.2837 7.73184 22.3347 10.7542 24.4645C13.7766 26.5944 20.7449 28.9749 23.5574 29.6431C26.3698 30.3113 28.1329 30.0607 29.3083 28.7243C30.4836 27.3879 29.9379 25.3833 29.3083 22.7523C28.6786 20.1212 26.7057 14.7756 24.271 10.7247Z" fill="#F92F60"/>
<path d="M28.4433 19.8768C28.3528 20.7947 28.0322 21.6913 27.6335 22.4756C27.1564 23.4139 26.5826 24.1619 26.2113 24.5541C26.0523 24.722 26.0602 24.9863 26.229 25.1444C26.3977 25.3026 26.6634 25.2947 26.8223 25.1268C27.2486 24.6768 27.869 23.8629 28.3826 22.8526C28.5992 22.4266 28.7995 21.9605 28.9579 21.4674C28.8117 20.9791 28.6392 20.4447 28.4433 19.8768Z" fill="#CA0B4A"/>
<path d="M13.4404 25.9855C14.9325 25.7902 16.2639 25.3679 17.3874 24.8215C19.0765 24.0002 20.324 22.8838 20.9233 21.806C21.0356 21.6042 20.9621 21.3501 20.7592 21.2384C20.5563 21.1268 20.3009 21.1999 20.1887 21.4017C19.6966 22.2868 18.6039 23.3003 17.0187 24.0711C15.6655 24.7292 13.974 25.1996 12.04 25.2619C12.4737 25.5039 12.9443 25.746 13.4404 25.9855Z" fill="#CA0B4A"/>
<path d="M23.1922 9.2168C23.5177 9.61084 23.8182 10.0147 24.0841 10.4254C24.0857 10.8337 24.072 11.2623 24.0373 11.6979C23.926 13.0927 23.5953 14.6131 22.8136 15.7616C22.6836 15.9525 22.4226 16.0025 22.2306 15.8732C22.0387 15.7439 21.9884 15.4842 22.1184 15.2932C22.7807 14.3202 23.0937 12.9694 23.2003 11.6319C23.2702 10.7556 23.2499 9.9083 23.1922 9.2168Z" fill="#CA0B4A"/>
<path d="M17.4077 18.242C11.456 23.2202 6.30471 19.7663 3.57617 16.7594C1.79213 14.2537 0.574781 7.34197 5.36021 3.91744C10.1456 0.492912 14.7212 2.30959 17.4077 4.31419C20.0943 6.3188 23.0747 13.502 17.4077 18.242Z" fill="#FF822D"/>
</svg>

<svg xmlns="http://www.w3.org/2000/svg" width="32" height="32" fill="none"><path fill="#F92F60" d="M24.271 10.725c-1.948-3.241-6.157-6.112-8.018-7.142C11.482 6.841 2.157 13.848 3.03 15.82c1.092 2.464 4.702 6.515 7.724 8.645 3.023 2.13 9.99 4.51 12.803 5.178 2.813.668 4.576.418 5.751-.919 1.176-1.336.63-3.34 0-5.972-.63-2.63-2.602-7.976-5.037-12.027Z"/><path fill="#CA0B4A" d="M28.443 19.877c-.09.918-.41 1.814-.81 2.599-.477.938-1.05 1.686-1.422 2.078a.416.416 0 0 0 .018.59c.169.159.434.15.593-.017.427-.45 1.047-1.264 1.56-2.274.217-.426.417-.893.576-1.386a40.824 40.824 0 0 0-.515-1.59ZM13.44 25.985a12.854 12.854 0 0 0 3.947-1.163c1.69-.822 2.937-1.938 3.536-3.016a.416.416 0 0 0-.164-.568.42.42 0 0 0-.57.164c-.492.885-1.585 1.898-3.17 2.67-1.353.657-3.045 1.128-4.979 1.19.434.242.904.484 1.4.723ZM23.192 9.217c.326.394.626.798.892 1.208.002.409-.012.837-.047 1.273-.111 1.395-.442 2.915-1.223 4.064a.421.421 0 0 1-.583.111.416.416 0 0 1-.113-.58c.663-.973.976-2.324 1.082-3.661.07-.876.05-1.724-.008-2.415Z"/><path fill="#FF822D" d="M17.408 18.242c-5.952 4.978-11.103 1.524-13.832-1.483C1.792 14.254.575 7.342 5.36 3.917c4.786-3.424 9.361-1.607 12.048.397 2.686 2.005 5.667 9.188 0 13.928Z"/></svg>
